logos/solidjs.svg

<?xml version="1.0" encoding="UTF-8"?>
<svg width="512px" height="214px" viewBox="0 0 512 214" version="1.1" xmlns="http://www.w3.org/2000/svg" xmlns:xlink="http://www.w3.org/1999/xlink" preserveAspectRatio="xMidYMid">
    <title>Solid</title>
    <defs>
        <linearGradient x1="-5.859375%" y1="38.2703387%" x2="91.40625%" y2="60.9240123%" id="Solid-linearGradient-1">
            <stop stop-color="#76B3E1" offset="10%"></stop>
            <stop stop-color="#DCF2FD" offset="30%"></stop>
            <stop stop-color="#76B3E1" offset="100%"></stop>
        </linearGradient>
        <linearGradient x1="56.9960525%" y1="38.4398744%" x2="37.9414579%" y2="68.3745528%" id="Solid-linearGradient-2">
            <stop stop-color="#76B3E1" offset="0%"></stop>
            <stop stop-color="#4377BB" offset="50%"></stop>
            <stop stop-color="#1F3B77" offset="100%"></stop>
        </linearGradient>
        <linearGradient x1="10.7088533%" y1="34.5316722%" x2="104.336952%" y2="70.4544679%" id="Solid-linearGradient-3">
            <stop stop-color="#315AA9" offset="0%"></stop>
            <stop stop-color="#518AC8" offset="50%"></stop>
            <stop stop-color="#315AA9" offset="100%"></stop>
        </linearGradient>
        <linearGradient x1="61.992557%" y1="29.5796581%" x2="17.7619124%" y2="105.119304%" id="Solid-linearGradient-4">
            <stop stop-color="#4377BB" offset="0%"></stop>
            <stop stop-color="#1A336B" offset="50%"></stop>
            <stop stop-color="#1A336B" offset="100%"></stop>
        </linearGradient>
    </defs>
    <g>
				<path d="M257.955675,121.695751 C257.955675,121.695751 262.89657,127.048387 270.719653,127.048387 C276.072288,127.048387 280.1897,123.754457 280.1897,118.813562 C280.1897,106.873067 256.30871,109.755256 256.30871,94.9325724 C256.30871,87.9329718 262.073087,81.7568537 271.131394,81.7568537 C279.366218,81.7568537 283.895371,86.286007 283.895371,86.286007 L281.836665,90.4034191 C281.836665,90.4034191 277.719253,86.286007 271.543135,86.286007 C265.367017,86.286007 261.661346,90.4034191 261.249605,94.5208312 C261.249605,105.637844 285.130595,102.755655 285.130595,118.401821 C285.130595,125.401422 279.777959,131.57754 270.719653,131.57754 C260.837864,131.57754 255.485228,125.401422 255.485228,125.401422 L257.955675,121.695751 Z M333.304316,82.1685949 C346.891776,82.1685949 357.597047,92.8738663 357.597047,106.873067 C357.597047,120.872268 346.891776,131.989281 333.304316,131.989281 C319.716856,131.989281 309.011585,120.872268 309.011585,106.873067 C309.011585,92.8738663 319.716856,82.1685949 333.304316,82.1685949 Z M333.304316,127.460128 C344.009587,127.460128 352.656153,118.401821 352.656153,106.873067 C352.656153,95.3443136 344.009587,86.6977482 333.304316,86.6977482 C322.599045,86.6977482 313.952479,95.3443136 313.952479,106.873067 C313.540738,117.99008 322.187303,127.460128 333.304316,127.460128 Z M385.183708,82.9920774 L389.712861,82.9920774 L389.712861,126.636645 L411.535145,126.636645 L411.535145,130.754057 L384.771967,130.754057 L385.183708,82.9920774 Z M437.474841,83.4038186 L442.003995,83.4038186 L442.003995,131.165799 L437.474841,131.165799 L437.474841,83.4038186 Z M472.884585,83.4038186 L488.11901,83.4038186 C502.529952,83.4038186 512,92.4621251 512,107.284809 C512,122.519233 502.118211,131.165799 487.707269,131.165799 L472.472844,131.165799 L472.884585,83.4038186 Z M487.707269,127.048387 C499.236023,127.048387 507.470847,120.460527 507.470847,107.284809 C507.470847,94.5208312 499.647764,87.5212306 488.11901,87.5212306 L477.82548,87.5212306 L477.82548,127.048387 L487.707269,127.048387 Z" fill="#000000"></path>
				<g>
						<path d="M229.705102,45.2885925 C229.705102,45.2885925 153.136735,-11.0541683 93.9046014,1.94800728 L89.5705428,3.39269345 C80.9024258,6.2820658 73.6789949,10.6161243 69.3449364,16.394869 L66.455564,20.7289276 L44.7852714,58.2907681 L82.347112,65.514199 C98.2386599,75.6270022 118.464266,79.9610607 137.245187,75.6270022 L203.700751,88.6291778 L229.705102,45.2885925 Z" fill="#76B3E1"></path>
						<path d="M229.705102,45.2885925 C229.705102,45.2885925 153.136735,-11.0541683 93.9046014,1.94800728 L89.5705428,3.39269345 C80.9024258,6.2820658 73.6789949,10.6161243 69.3449364,16.394869 L66.455564,20.7289276 L44.7852714,58.2907681 L82.347112,65.514199 C98.2386599,75.6270022 118.464266,79.9610607 137.245187,75.6270022 L203.700751,88.6291778 L229.705102,45.2885925 Z" fill="url(#Solid-linearGradient-1)" opacity="0.3"></path>
						<path d="M69.3449364,45.2885925 L63.5661917,46.7332787 C39.0065267,53.9567096 31.7830958,77.0716884 44.7852714,97.2972948 C59.2321332,116.078215 89.5705428,126.191018 114.130208,118.967587 L203.700751,88.6291778 C203.700751,88.6291778 127.132383,32.2864169 69.3449364,45.2885925 Z" fill="#518AC8"></path>
						<path d="M69.3449364,45.2885925 L63.5661917,46.7332787 C39.0065267,53.9567096 31.7830958,77.0716884 44.7852714,97.2972948 C59.2321332,116.078215 89.5705428,126.191018 114.130208,118.967587 L203.700751,88.6291778 C203.700751,88.6291778 127.132383,32.2864169 69.3449364,45.2885925 Z" fill="url(#Solid-linearGradient-2)" opacity="0.3"></path>
						<path d="M187.809203,110.29947 C171.263663,89.6290071 143.835419,81.0576808 118.464266,88.6291778 L28.8937235,117.522901 L0,168.086917 L161.804852,195.535955 L190.698575,143.527252 C196.47732,133.414449 195.032634,121.85696 187.809203,110.29947 Z" fill="url(#Solid-linearGradient-3)"></path>
						<path d="M158.915479,160.863486 C142.369939,140.193023 114.941695,131.621697 89.5705428,139.193194 L0,168.086917 C0,168.086917 76.5683673,225.874364 135.8005,211.427503 L140.134559,209.982816 C164.694224,202.759386 173.362341,179.644407 158.915479,160.863486 Z" fill="url(#Solid-linearGradient-4)"></path>
				</g>
		</g>
</svg>

<svg width="512" height="214" xmlns="http://www.w3.org/2000/svg" preserveAspectRatio="xMidYMid">
	<defs>
		<linearGradient x1="-5.859%" y1="38.27%" x2="91.406%" y2="60.924%" id="a">
			<stop stop-color="#76B3E1" offset="10%"/>
			<stop stop-color="#DCF2FD" offset="30%"/>
			<stop stop-color="#76B3E1" offset="100%"/>
		</linearGradient>
		<linearGradient x1="56.996%" y1="38.44%" x2="37.941%" y2="68.375%" id="b">
			<stop stop-color="#76B3E1" offset="0%"/>
			<stop stop-color="#4377BB" offset="50%"/>
			<stop stop-color="#1F3B77" offset="100%"/>
		</linearGradient>
		<linearGradient x1="10.709%" y1="34.532%" x2="104.337%" y2="70.454%" id="c">
			<stop stop-color="#315AA9" offset="0%"/>
			<stop stop-color="#518AC8" offset="50%"/>
			<stop stop-color="#315AA9" offset="100%"/>
		</linearGradient>
		<linearGradient x1="61.993%" y1="29.58%" x2="17.762%" y2="105.119%" id="d">
			<stop stop-color="#4377BB" offset="0%"/>
			<stop stop-color="#1A336B" offset="50%"/>
			<stop stop-color="#1A336B" offset="100%"/>
		</linearGradient>
	</defs>
	<path d="M257.956 121.696s4.94 5.352 12.764 5.352c5.352 0 9.47-3.294 9.47-8.234 0-11.94-23.881-9.059-23.881-23.881 0-7 5.764-13.176 14.822-13.176 8.235 0 12.764 4.529 12.764 4.529l-2.058 4.117s-4.118-4.117-10.294-4.117-9.882 4.117-10.293 8.235c0 11.117 23.88 8.235 23.88 23.88 0 7-5.352 13.177-14.41 13.177-9.882 0-15.235-6.177-15.235-6.177l2.47-3.705Zm75.348-39.527c13.588 0 24.293 10.705 24.293 24.704 0 14-10.705 25.116-24.293 25.116-13.587 0-24.292-11.117-24.292-25.116 0-14 10.705-24.704 24.292-24.704Zm0 45.291c10.706 0 19.352-9.058 19.352-20.587s-8.646-20.175-19.352-20.175c-10.705 0-19.352 8.646-19.352 20.175-.411 11.117 8.235 20.587 19.352 20.587Zm51.88-44.468h4.529v43.645h21.822v4.117h-26.763l.412-47.762Zm52.29.412h4.53v47.762h-4.53V83.404Zm35.41 0h15.235c14.411 0 23.881 9.058 23.881 23.88 0 15.235-9.882 23.882-24.293 23.882h-15.234l.412-47.762Zm14.823 43.644c11.529 0 19.764-6.587 19.764-19.763 0-12.764-7.823-19.764-19.352-19.764h-10.294v39.527h9.882Z"/>
	<path d="M229.705 45.289s-76.568-56.343-135.8-43.341L89.57 3.393c-8.669 2.89-15.892 7.223-20.226 13.002l-2.89 4.334-21.67 37.562 37.562 7.223c15.892 10.113 36.117 14.447 54.898 10.113l66.456 13.002 26.004-43.34Z" fill="#76B3E1"/>
	<path d="M229.705 45.289s-76.568-56.343-135.8-43.341L89.57 3.393c-8.669 2.89-15.892 7.223-20.226 13.002l-2.89 4.334-21.67 37.562 37.562 7.223c15.892 10.113 36.117 14.447 54.898 10.113l66.456 13.002 26.004-43.34Z" fill="url(#a)" opacity=".3"/>
	<path d="m69.345 45.289-5.779 1.444c-24.56 7.224-31.783 30.339-18.78 50.564 14.446 18.781 44.785 28.894 69.344 21.67L203.7 88.63S127.133 32.286 69.346 45.29Z" fill="#518AC8"/>
	<path d="m69.345 45.289-5.779 1.444c-24.56 7.224-31.783 30.339-18.78 50.564 14.446 18.781 44.785 28.894 69.344 21.67L203.7 88.63S127.133 32.286 69.346 45.29Z" fill="url(#b)" opacity=".3"/>
	<path d="M187.81 110.3c-16.546-20.671-43.975-29.242-69.346-21.67l-89.57 28.893L0 168.087l161.805 27.449 28.894-52.009c5.778-10.113 4.334-21.67-2.89-33.228Z" fill="url(#c)"/>
	<path d="M158.915 160.863c-16.545-20.67-43.973-29.241-69.344-21.67L0 168.087s76.568 57.787 135.8 43.34l4.335-1.444c24.56-7.224 33.227-30.339 18.78-49.12Z" fill="url(#d)"/>
</svg>
